packages/iconset/src/svg/icon_lightbulb_alt.svg

<?xml version="1.0" encoding="UTF-8"?>
<svg fill="currentColor" version="1.1" viewBox="0 0 32 32" xmlns="http://www.w3.org/2000/svg">
 <g transform="scale(1 .99807)">
  <path d="m16 0c-6.616 0-12 5.384-12 12 0 3.868 1.88 7.52 5.032 9.77 0.048 0.034 0.098 0.066 0.148 0.096 0.732 0.43 0.804 1.816 0.788 2.07-2e-3 0.042-4e-3 0.084-4e-3 0.124v3.94c0 0.752 0.42 1.438 1.09 1.78l4.036 2.062c0.286 0.146 0.598 0.22 0.91 0.22 0.31 0 0.618-0.072 0.902-0.214l4.084-2.062c0.674-0.34 1.098-1.03 1.098-1.786v-3.916c0-1.974 1.206-2.626 1.218-2.632 0.16-0.074 0.308-0.17 0.442-0.284 2.704-2.288 4.256-5.628 4.256-9.168 0-6.616-5.384-12-12-12zm-4.036 24.062s0-0.04 2e-3 -0.062h8.124c0 0.03-8e-3 0.052-8e-3 0.084v1.916h-8.118zm4.036 6-4.034-2.062h8.118zm6.452-10.422s-1.34 0.63-2.004 2.36h-8.804c-0.248-0.692-0.678-1.404-1.45-1.858-2.538-1.812-4.194-4.784-4.194-8.142 0-5.522 4.478-10 10-10s10 4.478 10 10c0 3.064-1.378 5.806-3.548 7.64zm-5.452-15.64c-0.552 0-1 0.448-1 1s0.448 1 1 1c2.25 0 5 2.046 5 5.094 0 0.552 0.448 1 1 1s1-0.448 1-1c0-4.562-3.562-7.094-7-7.094z"/>
 </g>
</svg>

<svg viewBox="0 0 32 32" xmlns="http://www.w3.org/2000/svg" xmlns:xlink="http://www.w3.org/1999/xlink" fill="currentColor">
    <g>
        <path d="M 16,0C 9.384,0, 4,5.384, 4,12c0,3.868, 1.88,7.52, 5.032,9.77c 0.048,0.034, 0.098,0.066, 0.148,0.096 c 0.732,0.43, 0.804,1.816, 0.788,2.070c-0.002,0.042-0.004,0.084-0.004,0.124L 9.964,28 c0,0.752, 0.42,1.438, 1.090,1.78l 4.036,2.062 c 0.286,0.146, 0.598,0.22, 0.91,0.22c 0.31,0, 0.618-0.072, 0.902-0.214l 4.084-2.062c 0.674-0.34, 1.098-1.030, 1.098-1.786l0-3.916 c0-1.974, 1.206-2.626, 1.218-2.632c 0.16-0.074, 0.308-0.17, 0.442-0.284C 26.448,18.88, 28,15.54, 28,12C 28,5.384, 22.616,0, 16,0z M 11.964,24.062c0,0,0-0.040, 0.002-0.062l 8.124,0 c0,0.030-0.008,0.052-0.008,0.084c0,0.786,0,1.408,0,1.916L 11.964,26 L 11.964,24.062 z M 16,30.062 L 11.966,28l 8.118,0 L 16,30.062z M 22.452,19.64c0,0-1.34,0.63-2.004,2.36L 11.644,22 c-0.248-0.692-0.678-1.404-1.45-1.858 C 7.656,18.33, 6,15.358, 6,12c0-5.522, 4.478-10, 10-10s 10,4.478, 10,10C 26,15.064, 24.622,17.806, 22.452,19.64zM 17,4C 16.448,4, 16,4.448, 16,5S 16.448,6, 17,6C 19.25,6, 22,8.046, 22,11.094c0,0.552, 0.448,1, 1,1 s 1-0.448, 1-1C 24,6.532, 20.438,4, 17,4z"></path>
    </g>
</svg>
